X: 1
T: Loch Rynach
O: trad Scotland
R: reel
Z: 2011 John Chambers <jc:trillian.mit.edu>
M: C|
L: 1/8
K: G
|: "G"G2Bd "D7"cAFD | "G"G2Bd "D7"c2cf | "G"gdBd "C(Am)"ecAc | "D7"BGAF "G"G2z2 :|
|: "G"g2 (3fga gdBG | "G"g2 (3fga  g2b2 | "G"gdBd "C(Am)"ecAc | "D7"BGAF "G"G2z2 :|
